apps/common/main/resources/img/toolbar/2.5x/btn-numbering-rtl.svg

<svg xmlns="http://www.w3.org/2000/svg" width="20" height="20" fill="none"><path fill="#000" d="M15 7h-1V4h-1V3h2v4Zm1 4v1h-3v-1l2-2h-2V8h2l1 1-2 2h2Zm-3 5v1h2l1-1-.5-1 .5-1-1-1h-2v1h2l-.5 1 .5 1h-2ZM4 5h8v1H4V5Zm0 5h8v1H4v-1Zm8 5H4v1h8v-1Z"/></svg>

<svg width="20" height="20" viewBox="0 0 20 20" fill="none" xmlns="http://www.w3.org/2000/svg">
<path fill-rule="evenodd" clip-rule="evenodd" d="M15 7H14V4H13V3H14H15V7ZM16 11V12H13V11L15 9H13V8H14H15L16 9L14 11H16ZM13 16V17H15L16 16L15.5 15L16 14L15 13H13V14H14H15L14.5 15L15 16H13ZM4 5H12V6H4V5ZM4 10H12V11H4V10ZM12 15H4V16H12V15Z" fill="black"/>
</svg>
